X: 3355
T: ALBERT'S HORNPIPE
R: Hornpipe.
%R: hornpipe, reel
B: James Kerr "Merry Melodies" v.3 p.39 #355
Z: 2016 John Chambers <jc:trillian.mit.edu>
M: C
L: 1/8
K: C
(ef) |\
gece dBGB | cBcA G2(EF) |\
GcBc Ad^cd | B2G2 G2(ef) |\
gece dBGB | cBcA G2(cB) |\
ABcd ecdB | c2c2 c2 :|
|: (Bc) |\
defd BGAB | cBcd e2(de) |\
fgag fedc | B2d2 d2(ef) |\
gece dBGB | cBcA G2(cB) |\
ABcd ecdB | c2c2 c2 :|

%%sep 1 1 500
%%sep 1 1 500

